X: 41692
T: Valdeferreiros
R: jig
M: 6/8
K: Amixolydian
agf|:efg agf|a2 e agf|gfe dcB|c2 A agf|
efg agf|a2 e agf|gfe dcB|1 A3 agf:|2 A4 cd||
|:eAe eAe|cBA ABc|ded BGB|cBA AA/B/c/d/|
eAe eAe|cBA ABc|ded BGB||1 A4 cd:|2 A3 ABc||
|:d2 d dcB|c2 c cBA|B2 B Bcd|e3 ABc|
d2 d dcB|c2 c cBA|BBB BcB|1 A3 ABc:|2 A3 agf||

